X: 1
T: Heilani talo kivinen talo
M: 3/4
L: 1/8
K: Dm
[| "Dm"A2 DD DF | "Dm"A2 DD DF | "Gm"A2 GG GA | B2 "A7(Dm)"A2 z2 \
|: "C7"c2 cc BB |  "F"A2 G2 FG | "A7"A2 GG FF | E2 "Dm"D2 z2 :|
